!! 00000] TT[WS
!!!OTL: Biao guniang
!!!ARE: Asia, China, Shanxi Wutai
!! Ethnic Group: Han
!! WII, 134 (1)
!!!SCT: J0606
!!!YEM: Copyright 1995, estate of Helmut Schaffrath.
**kern
*ICvox
*Ivox
*M2/4
*k[f#c#g#]
*A:
{8ee
8ee
8ee
8ff#
=1
8cc#
8b
4a
=2
8ee
8cc#
8b
8cc#
=3
2a}
=4
{8a
8b
8cc#
8ee
=5
4b
8a
8cc#
=6
8b
8a
8f#
8a
=7
2e}
=8
{4.e
8f#
=9
4a
8a
8f#
=10
4ee
8b
8cc#
=11
8ee
8f#
4a}
=12
{8cc#
8b
8cc#
8ee
=13
8a
8f#
4e
=14
8cc#
8b
8cc#
8ee
=15
8a
8f#
4e}
=16
{8a
8b
8ee
8cc#
=17
4b
8a
8cc#
=18
8b
8b
4e
=19
8a
8f#
8e
8c#
=20
2e}
==
!!!AGN: Xiaodiao. Qingge, Aisu
!!!ONB: ESAC (Essen Associative Code) Database: CHINA
!!!AMT: simple duple
!!!AIN: vox
!!!EED: Helmut Schaffrath
!!!EEV: 1.0
*-
